X:1
T:The Bark Gay Head
M:2/4
L:1/8
K:C
 G| CC EE| GE GG| GE AF| D D2 D| DE FG| AF AA| AF dB| G G2 G| GA Bc|\
 cB AG| cc GE| c3 c| AA FF| D G2 G| AF DB,| C4| C2 E2| G2 EE|G-E AF|\
 D3 D| DE FG| AF AA| AF dB| G3 G| GA Bc| cB AG| cc GE| c3 c| AA FF|\
 DG G2| AF DB,| C3||
